X:1
T:Pamplona, 87.87 D
T:Pamplona, 87.87 D
T:S. L. Howard, 1904
T:Public Domain Courtesy of the Cyber Hymnal™
C:S. L. Howard, 1904
Z:Public Domain
Z:Courtesy of the Cyber Hymnal™
%%score ( 1 2 ) ( 3 4 )
L:1/8
Q:1/4=105
M:4/4
K:F
V:1 treble 
V:2 treble 
V:3 bass 
V:4 bass 
V:1
 [FA]>[FA] | [FA]2 [EG]2 [CB]2 [CE]2 | [CG]2 [CF]4 F>F | [Fd]2 [Fd]2 [FG]2 [FG]2 | %4
 [EG]6 [GB]>[GB] | [FA]2 [EG]2 F2 [FA]2 | [Fc]2 [FB]4 [F=B]>[FB] | [Fc]2 [FA]2 [EB]2 [CE]2 | %8
 [CF]6 F>F | [FB]2 [FB]2 F2 [FB]2 | [FB]2 [FA]4 [FA]>[FB] | [Fc]2 [Fc]2 [G^c]2 [Gc]2 | %12
 [Fd]6 [^Fd]>[Fc] | [GB]2 [GB]2 [FA]2 F2 | [Fc]2 [FB]4 [F=B]>[FB] | [Fc]2 [FA]2 [EB]2 [CE]2 | %16
 [CF]6 |] %17
V:2
 x2 | x8 | x6 F>F | x8 | x8 | x4 F2 x2 | x8 | x8 | x6 F>F | x4 F2 x2 | x8 | x8 | x8 | x6 F2 | x8 | %15
 x8 | x6 |] %17
V:3
 [F,C]>[F,C] | [F,C]2 [C,C]2 [E,G,]2 [C,B,]2 | [F,B,]2 [F,A,]4 [F,A,]>[F,A,] | %3
 [D,A,]2 [D,A,]2 [G,=B,]2 [G,B,]2 | [C,C]6 [E,C]>[E,C] | [F,C]2 [C,B,]2 [F,A,]2 [_E,C]2 | %6
 [D,B,]2 [D,B,]4 [_D,^G,]>[D,G,] | [C,A,]2 [C,C]2 [C,G,]2 [C,B,]2 | [F,A,]6 [F,A,]>[F,A,] | %9
 [B,,D]2 [B,,D]2 D2 D2 | [F,D]2 [F,C]4 [F,C]>[F,G,] | [F,A,]2 [F,A,]2 [E,A,]2 [E,A,]2 | %12
 [D,A,]6 [D,A,]>[D,D] | [G,D]2 [E,C]2 [F,C]2 [_E,A,]2 | [D,B,]2 [D,B,]4 [_D,^G,]>[D,G,] | %15
 [C,A,]2 [C,C]2 [C,G,]2 [C,B,]2 | [F,A,]6 |] %17
V:4
 x2 | x8 | x8 | x8 | x8 | x8 | x8 | x8 | x8 | x4 (B,,C,) (D,E,) | x8 | x8 | x8 | x8 | x8 | x8 | %16
 x6 |] %17

